images/icons/32/system-software-update.svg

<?xml version="1.0" encoding="UTF-8" standalone="no"?>
<!-- Created with Inkscape (http://www.inkscape.org/) -->

<svg
   xmlns:dc="http://purl.org/dc/elements/1.1/"
   xmlns:cc="http://creativecommons.org/ns#"
   xmlns:rdf="http://www.w3.org/1999/02/22-rdf-syntax-ns#"
   xmlns:svg="http://www.w3.org/2000/svg"
   xmlns="http://www.w3.org/2000/svg"
   xmlns:xlink="http://www.w3.org/1999/xlink"
   xmlns:inkscape="http://www.inkscape.org/namespaces/inkscape"
   version="1.1"
   width="32"
   height="32"
   id="svg4047">
  <defs
     id="defs4049">
    <linearGradient
       x1="167.98311"
       y1="8.50811"
       x2="167.98311"
       y2="54.780239"
       id="linearGradient3153"
       xlink:href="#linearGradient5803-2-1"
       gradientUnits="userSpaceOnUse"
       gradientTransform="matrix(0.444007,0,0,0.444007,-57.047895,2.7917769)" />
    <linearGradient
       id="linearGradient5803-2-1">
      <stop
         id="stop5805-1-6"
         style="stop-color:#fff5ef;stop-opacity:1"
         offset="0" />
      <stop
         id="stop5807-6-6"
         style="stop-color:#fef8dd;stop-opacity:1"
         offset="1" />
    </linearGradient>
    <linearGradient
       x1="23.99999"
       y1="4.999989"
       x2="23.99999"
       y2="43"
       id="linearGradient3046"
       xlink:href="#linearGradient3924-0"
       gradientUnits="userSpaceOnUse"
       gradientTransform="matrix(0.62162164,0,0,0.62162164,1.0810794,2.0810903)" />
    <linearGradient
       id="linearGradient3924-0">
      <stop
         id="stop3926-6"
         style="stop-color:#ffffff;stop-opacity:1"
         offset="0" />
      <stop
         id="stop3928-3"
         style="stop-color:#ffffff;stop-opacity:0.23529412"
         offset="0.06316455" />
      <stop
         id="stop3930-2"
         style="stop-color:#ffffff;stop-opacity:0.15686275"
         offset="0.95056331" />
      <stop
         id="stop3932-62"
         style="stop-color:#ffffff;stop-opacity:0.39215687"
         offset="1" />
    </linearGradient>
    <radialGradient
       cx="4.9929786"
       cy="43.5"
       r="2.5"
       fx="4.9929786"
       fy="43.5"
       id="radialGradient2976"
       xlink:href="#linearGradient3688-166-749-6"
       gradientUnits="userSpaceOnUse"
       gradientTransform="matrix(2.003784,0,0,1.4,27.98813,-17.4)" />
    <linearGradient
       id="linearGradient3688-166-749-6">
      <stop
         id="stop2883-8"
         style="stop-color:#181818;stop-opacity:1"
         offset="0" />
      <stop
         id="stop2885-3"
         style="stop-color:#181818;stop-opacity:0"
         offset="1" />
    </linearGradient>
    <radialGradient
       cx="4.9929786"
       cy="43.5"
       r="2.5"
       fx="4.9929786"
       fy="43.5"
       id="radialGradient2978"
       xlink:href="#linearGradient3688-464-309-7"
       gradientUnits="userSpaceOnUse"
       gradientTransform="matrix(2.003784,0,0,1.4,-20.01187,-104.4)" />
    <linearGradient
       id="linearGradient3688-464-309-7">
      <stop
         id="stop2889-0"
         style="stop-color:#181818;stop-opacity:1"
         offset="0" />
      <stop
         id="stop2891-66"
         style="stop-color:#181818;stop-opacity:0"
         offset="1" />
    </linearGradient>
    <linearGradient
       x1="25.058096"
       y1="47.027729"
       x2="25.058096"
       y2="39.999443"
       id="linearGradient2980"
       xlink:href="#linearGradient3702-501-757-3"
       gradientUnits="userSpaceOnUse" />
    <linearGradient
       id="linearGradient3702-501-757-3">
      <stop
         id="stop2895-3"
         style="stop-color:#181818;stop-opacity:0"
         offset="0" />
      <stop
         id="stop2897-28"
         style="stop-color:#181818;stop-opacity:1"
         offset="0.5" />
      <stop
         id="stop2899-8"
         style="stop-color:#181818;stop-opacity:0"
         offset="1" />
    </linearGradient>
    <linearGradient
       id="linearGradient2867-449-88-871-390-598-476-591-434-148-57-177-8-3-3-6-4-8-8-8">
      <stop
         id="stop3750-1-0-7-6-6-1-3-9"
         style="stop-color:#ffcd7d;stop-opacity:1"
         offset="0" />
      <stop
         id="stop3752-3-7-4-0-32-8-923-0"
         style="stop-color:#fc8f36;stop-opacity:1"
         offset="0.26238" />
      <stop
         id="stop3754-1-8-5-2-7-6-7-1"
         style="stop-color:#e23a0e;stop-opacity:1"
         offset="0.704952" />
      <stop
         id="stop3756-1-6-2-6-6-1-96-6"
         style="stop-color:#ac441f;stop-opacity:1"
         offset="1" />
    </linearGradient>
    <radialGradient
       cx="6.7304144"
       cy="9.9571075"
       r="12.671875"
       fx="6.2001843"
       fy="9.9571075"
       id="radialGradient4045"
       xlink:href="#linearGradient2867-449-88-871-390-598-476-591-434-148-57-177-8-3-3-6-4-8-8-8"
       gradientUnits="userSpaceOnUse"
       gradientTransform="matrix(0,6.0881746,-7.4743333,0,90.95548,-49.769855)" />
  </defs>
  <metadata
     id="metadata4052">
    <rdf:RDF>
      <cc:Work
         rdf:about="">
        <dc:format>image/svg+xml</dc:format>
        <dc:type
           rdf:resource="http://purl.org/dc/dcmitype/StillImage" />
        <dc:title />
      </cc:Work>
    </rdf:RDF>
  </metadata>
  <g
     id="layer1">
    <rect
       width="25"
       height="25"
       rx="2"
       ry="2"
       x="3.4999993"
       y="4.5"
       id="rect5505"
       style="color:#000000;fill:url(#radialGradient4045);fill-opacity:1;fill-rule:nonzero;stroke:none;stroke-width:0.99999994;marker:none;visibility:visible;display:inline;overflow:visible;enable-background:accumulate" />
    <g
       transform="matrix(0.6999997,0,0,0.3333336,-0.8000002,15.33333)"
       id="g2036-2"
       style="display:inline">
      <g
         transform="matrix(1.052632,0,0,1.285713,-1.263158,-13.42854)"
         id="g3712-3"
         style="opacity:0.4">
        <rect
           width="5"
           height="7"
           x="38"
           y="40"
           id="rect2801-0"
           style="fill:url(#radialGradient2976);fill-opacity:1;stroke:none" />
        <rect
           width="5"
           height="7"
           x="-10"
           y="-47"
           transform="scale(-1,-1)"
           id="rect3696-2"
           style="fill:url(#radialGradient2978);fill-opacity:1;stroke:none" />
        <rect
           width="28"
           height="7.0000005"
           x="10"
           y="40"
           id="rect3700-1"
           style="fill:url(#linearGradient2980);fill-opacity:1;stroke:none" />
      </g>
    </g>
    <rect
       width="23"
       height="23"
       rx="1"
       ry="1"
       x="4.499999"
       y="5.5"
       id="rect6741-7-4"
       style="opacity:0.5;fill:none;stroke:url(#linearGradient3046);stroke-width:1;stroke-linecap:round;stroke-linejoin:round;stroke-miterlimit:4;stroke-opacity:1;stroke-dasharray:none;stroke-dashoffset:0" />
    <rect
       width="25"
       height="25"
       rx="2"
       ry="2"
       x="3.4999993"
       y="4.5"
       id="rect5505-6"
       style="opacity:0.4;color:#000000;fill:none;stroke:#640000;stroke-width:1;stroke-linecap:round;stroke-linejoin:round;stroke-miterlimit:4;stroke-opacity:1;stroke-dasharray:none;stroke-dashoffset:0;marker:none;visibility:visible;display:inline;overflow:visible;enable-background:accumulate" />
    <path
       d="m 16,9.03125 c -4.174939,0 -7.6918488,2.839992 -8.6875,6.71875 A 0.97851661,0.97851661 0 0 0 8.25,16.96875 l 2.09375,0 a 0.97851661,0.97851661 0 0 0 0.9375,-0.65625 C 11.969412,14.363857 13.803592,12.96875 16,12.96875 c 1.030143,0 1.925745,0.395353 2.71875,0.9375 L 17.3125,15.3125 A 0.97851661,0.97851661 0 0 0 18,16.96875 l 6,0 A 0.97851661,0.97851661 0 0 0 24.96875,16 l 0,-6 A 0.97851661,0.97851661 0 0 0 23.3125,9.3125 l -1.78125,1.78125 C 19.993987,9.8643346 18.117702,9.03125 16,9.03125 z m -8.1875,10 A 0.97851661,0.97851661 0 0 0 7.03125,20 l 0,6 a 0.97851661,0.97851661 0 0 0 1.65625,0.6875 l 1.78125,-1.78125 c 1.537263,1.229415 3.413548,2.0625 5.53125,2.0625 4.174939,0 7.691849,-2.839992 8.6875,-6.71875 A 0.97851661,0.97851661 0 0 0 23.75,19.03125 l -2.09375,0 a 0.97851661,0.97851661 0 0 0 -0.9375,0.65625 C 20.030588,21.636143 18.196408,23.03125 16,23.03125 c -1.030143,0 -1.925745,-0.395353 -2.71875,-0.9375 L 14.6875,20.6875 A 0.97851661,0.97851661 0 0 0 14,19.03125 l -6,0 a 0.97851661,0.97851661 0 0 0 -0.1875,0 z"
       inkscape:connector-curvature="0"
       id="path3225"
       style="opacity:0.15;color:#000000;fill:#ae2109;fill-opacity:1;fill-rule:nonzero;stroke:none;stroke-width:1;marker:none;visibility:visible;display:inline;overflow:visible;enable-background:accumulate" />
    <path
       d="m 16,10 c -3.729468,0 -6.8636442,2.547024 -7.75,6 l 2.09375,0 C 11.167,13.668833 13.387003,12 16,12 c 1.657475,0 3.133711,0.695187 4.21875,1.78125 L 18,16 l 6,0 0,-6 -2.34375,2.34375 C 20.208714,10.900386 18.206602,10 16,10 z m -8,10 0,6 2.34375,-2.34375 C 11.791286,25.099614 13.793398,26 16,26 c 3.729468,0 6.863644,-2.547024 7.75,-6 l -2.09375,0 C 20.833,22.331167 18.612997,24 16,24 14.342525,24 12.866289,23.304813 11.78125,22.21875 L 14,20 z"
       inkscape:connector-curvature="0"
       id="path3059-0-0"
       style="opacity:0.3;color:#000000;fill:#ae2109;fill-opacity:1;fill-rule:nonzero;stroke:none;stroke-width:1;marker:none;visibility:visible;display:inline;overflow:visible;enable-background:accumulate" />
    <path
       d="m 16,9 c -3.729468,0 -6.8636442,2.547024 -7.75,6 l 2.09375,0 C 11.167,12.668833 13.387003,11 16,11 c 1.657475,0 3.133711,0.695187 4.21875,1.78125 L 18,15 l 6,0 0,-6 -2.34375,2.34375 C 20.208714,9.9003855 18.206602,9 16,9 z m -8,10 0,6 2.34375,-2.34375 C 11.791286,24.099614 13.793398,25 16,25 c 3.729468,0 6.863644,-2.547024 7.75,-6 l -2.09375,0 C 20.833,21.331167 18.612997,23 16,23 14.342525,23 12.866289,22.304813 11.78125,21.21875 L 14,19 z"
       inkscape:connector-curvature="0"
       id="path3059-0"
       style="color:#000000;fill:url(#linearGradient3153);fill-opacity:1;fill-rule:nonzero;stroke:none;stroke-width:1.00000012px;marker:none;visibility:visible;display:inline;overflow:visible;enable-background:accumulate" />
  </g>
</svg>

<!-- Created with Inkscape (http://www.inkscape.org/) -->
<svg id="svg4047" xmlns:rdf="http://www.w3.org/1999/02/22-rdf-syntax-ns#" xmlns="http://www.w3.org/2000/svg" height="32" width="32" version="1.1" xmlns:cc="http://creativecommons.org/ns#" xmlns:xlink="http://www.w3.org/1999/xlink" xmlns:dc="http://purl.org/dc/elements/1.1/">
 <defs id="defs4049">
  <linearGradient id="linearGradient3153" y2="54.78" gradientUnits="userSpaceOnUse" x2="167.98" gradientTransform="matrix(0.444007,0,0,0.444007,-57.047895,2.7917769)" y1="8.5081" x1="167.98">
   <stop id="stop5805-1-6" stop-color="#fff5ef" offset="0"/>
   <stop id="stop5807-6-6" stop-color="#fef8dd" offset="1"/>
  </linearGradient>
  <linearGradient id="linearGradient3046" y2="43" gradientUnits="userSpaceOnUse" x2="24" gradientTransform="matrix(0.62162164,0,0,0.62162164,1.0810794,2.0810903)" y1="5" x1="24">
   <stop id="stop3926-6" stop-color="#FFF" offset="0"/>
   <stop id="stop3928-3" stop-color="#FFF" stop-opacity="0.23529412" offset="0.063165"/>
   <stop id="stop3930-2" stop-color="#FFF" stop-opacity="0.15686275" offset="0.95056"/>
   <stop id="stop3932-62" stop-color="#FFF" stop-opacity="0.39215687" offset="1"/>
  </linearGradient>
  <radialGradient id="radialGradient2976" gradientUnits="userSpaceOnUse" cy="43.5" cx="4.993" gradientTransform="matrix(2.003784,0,0,1.4,27.98813,-17.4)" r="2.5">
   <stop id="stop2883-8" stop-color="#181818" offset="0"/>
   <stop id="stop2885-3" stop-color="#181818" stop-opacity="0" offset="1"/>
  </radialGradient>
  <radialGradient id="radialGradient2978" gradientUnits="userSpaceOnUse" cy="43.5" cx="4.993" gradientTransform="matrix(2.003784,0,0,1.4,-20.01187,-104.4)" r="2.5">
   <stop id="stop2889-0" stop-color="#181818" offset="0"/>
   <stop id="stop2891-66" stop-color="#181818" stop-opacity="0" offset="1"/>
  </radialGradient>
  <linearGradient id="linearGradient2980" y2="39.999" gradientUnits="userSpaceOnUse" x2="25.058" y1="47.028" x1="25.058">
   <stop id="stop2895-3" stop-color="#181818" stop-opacity="0" offset="0"/>
   <stop id="stop2897-28" stop-color="#181818" offset="0.5"/>
   <stop id="stop2899-8" stop-color="#181818" stop-opacity="0" offset="1"/>
  </linearGradient>
  <radialGradient id="radialGradient4045" fx="6.2002" gradientUnits="userSpaceOnUse" cy="9.9571" cx="6.7304" gradientTransform="matrix(0,6.0881746,-7.4743333,0,90.95548,-49.769855)" r="12.672">
   <stop id="stop3750-1-0-7-6-6-1-3-9" stop-color="#ffcd7d" offset="0"/>
   <stop id="stop3752-3-7-4-0-32-8-923-0" stop-color="#fc8f36" offset="0.26238"/>
   <stop id="stop3754-1-8-5-2-7-6-7-1" stop-color="#e23a0e" offset="0.70495"/>
   <stop id="stop3756-1-6-2-6-6-1-96-6" stop-color="#ac441f" offset="1"/>
  </radialGradient>
 </defs>
 <metadata id="metadata4052">
  <rdf:RDF>
   <cc:Work rdf:about="">
    <dc:format>image/svg+xml</dc:format>
    <dc:type rdf:resource="http://purl.org/dc/dcmitype/StillImage"/>
    <dc:title/>
   </cc:Work>
  </rdf:RDF>
 </metadata>
 <g id="layer1">
  <rect id="rect5505" style="enable-background:accumulate;color:#000000;" fill-rule="nonzero" rx="2" ry="2" height="25" width="25" y="4.5" x="3.5" fill="url(#radialGradient4045)"/>
  <g id="g2036-2" transform="matrix(0.6999997,0,0,0.3333336,-0.8000002,15.33333)">
   <g id="g3712-3" opacity="0.4" transform="matrix(1.052632,0,0,1.285713,-1.263158,-13.42854)">
    <rect id="rect2801-0" height="7" width="5" y="40" x="38" fill="url(#radialGradient2976)"/>
    <rect id="rect3696-2" transform="scale(-1,-1)" height="7" width="5" y="-47" x="-10" fill="url(#radialGradient2978)"/>
    <rect id="rect3700-1" height="7" width="28" y="40" x="10" fill="url(#linearGradient2980)"/>
   </g>
  </g>
  <rect id="rect6741-7-4" opacity="0.5" stroke-linejoin="round" stroke-dasharray="none" stroke-dashoffset="0" rx="1" ry="1" height="23" width="23" stroke="url(#linearGradient3046)" stroke-linecap="round" stroke-miterlimit="4" y="5.5" x="4.5" stroke-width="1" fill="none"/>
  <rect id="rect5505-6" opacity="0.4" stroke-linejoin="round" style="enable-background:accumulate;color:#000000;" stroke-dasharray="none" stroke-dashoffset="0" rx="2" ry="2" height="25" width="25" stroke="#640000" stroke-linecap="round" stroke-miterlimit="4" y="4.5" x="3.5" stroke-width="1" fill="none"/>
  <path id="path3225" opacity="0.15" style="enable-background:accumulate;color:#000000;" d="m16,9.0312c-4.1749,0-7.6918,2.84-8.6875,6.7188a0.97852,0.97852,0,0,0,0.9375,1.219h2.0938a0.97852,0.97852,0,0,0,0.9375,-0.65625c0.687-1.949,2.522-3.344,4.718-3.344,1.0301,0,1.9257,0.39535,2.7188,0.9375l-1.407,1.406a0.97852,0.97852,0,0,0,0.688,1.657h6a0.97852,0.97852,0,0,0,0.969,-0.969v-6a0.97852,0.97852,0,0,0,-1.657,-0.6875l-1.7812,1.7812c-1.537-1.2297-3.413-2.0628-5.531-2.0628zm-8.1875,10a0.97852,0.97852,0,0,0,-0.7813,0.969v6a0.97852,0.97852,0,0,0,1.6562,0.6875l1.7812-1.7812c1.5373,1.2294,3.4135,2.0625,5.5312,2.0625,4.1749,0,7.6918-2.84,8.6875-6.7188a0.97852,0.97852,0,0,0,-0.938,-1.22h-2.0938a0.97852,0.97852,0,0,0,-0.9375,0.65625c-0.687,1.949-2.522,3.344-4.718,3.344-1.0301,0-1.9257-0.39535-2.7188-0.9375l1.407-1.406a0.97852,0.97852,0,0,0,-0.688,-1.657h-6a0.97852,0.97852,0,0,0,-0.1875,0z" fill-rule="nonzero" fill="#ae2109"/>
  <path id="path3059-0-0" opacity="0.3" style="enable-background:accumulate;color:#000000;" d="m16,10c-3.7295,0-6.8636,2.547-7.75,6h2.0938c0.823-2.331,3.043-4,5.656-4,1.6575,0,3.1337,0.69519,4.2188,1.7812l-2.219,2.219h6v-6l-2.3438,2.3438c-1.447-1.444-3.449-2.344-5.656-2.344zm-8,10,0,6,2.3438-2.3438c1.447,1.444,3.449,2.344,5.656,2.344,3.7295,0,6.8636-2.547,7.75-6h-2.0938c-0.823,2.331-3.043,4-5.656,4-1.657,0-3.134-0.695-4.219-1.781l2.219-2.219z" fill-rule="nonzero" fill="#ae2109"/>
  <path id="path3059-0" style="enable-background:accumulate;color:#000000;" fill="url(#linearGradient3153)" d="m16,9c-3.7295,0-6.8636,2.547-7.75,6h2.0938c0.823-2.331,3.043-4,5.656-4,1.6575,0,3.1337,0.69519,4.2188,1.7812l-2.219,2.219h6v-6l-2.3438,2.3438c-1.447-1.4436-3.449-2.344-5.656-2.344zm-8,10,0,6,2.3438-2.3438c1.447,1.444,3.449,2.344,5.656,2.344,3.7295,0,6.8636-2.547,7.75-6h-2.0938c-0.823,2.331-3.043,4-5.656,4-1.657,0-3.134-0.695-4.219-1.781l2.219-2.219z" fill-rule="nonzero"/>
 </g>
</svg>
